img/tab-icons/Seating-active.svg

<svg width="24" height="24" viewBox="0 0 24 24" fill="none" xmlns="http://www.w3.org/2000/svg">
<g clip-path="url(#clip0_1_6194)">
<path d="M15 2H9C7.07 2 5.5 3.57 5.5 5.5V8.04C6.05 8.12 6.57 8.32 7 8.64V5.5C7 4.4 7.9 3.5 9 3.5H15C16.1 3.5 17 4.4 17 5.5V8.64C17.43 8.32 17.95 8.12 18.5 8.04V5.5C18.5 3.57 16.93 2 15 2Z" fill="#41FFB4"/>
<path d="M9.12988 19V19.5C9.12988 19.78 8.90988 20 8.62988 20H7.62988C7.35988 20 7.12988 19.78 7.12988 19.5V19H5.62988V19.5C5.62988 20.6 6.52988 21.5 7.62988 21.5H8.62988C9.73988 21.5 10.6299 20.6 10.6299 19.5V19H9.12988Z" fill="#41FFB4"/>
<path d="M9.12988 19V19.5C9.12988 19.78 8.90988 20 8.62988 20H7.62988C7.35988 20 7.12988 19.78 7.12988 19.5V19H9.12988Z" fill="#41FFB4"/>
<path d="M17.1299 19V19.5C17.1299 19.78 16.9099 20 16.6299 20H15.6299C15.3599 20 15.1299 19.78 15.1299 19.5V19H13.6299V19.5C13.6299 20.6 14.5299 21.5 15.6299 21.5H16.6299C17.7399 21.5 18.6299 20.6 18.6299 19.5V19H17.1299Z" fill="#41FFB4"/>
<path d="M17.1299 19V19.5C17.1299 19.78 16.9099 20 16.6299 20H15.6299C15.3599 20 15.1299 19.78 15.1299 19.5V19H17.1299Z" fill="#41FFB4"/>
<path d="M21 11.5V15.5C21 16.6 20.1 17.5 19 17.5H5C3.9 17.5 3 16.6 3 15.5V11.5C3 10.4 3.9 9.5 5 9.5C5.17 9.5 5.34 9.52 5.5 9.57C6.36 9.79 7 10.57 7 11.5C7 12.6 7.9 13.5 9 13.5H15C16.1 13.5 17 12.6 17 11.5C17 10.57 17.64 9.79 18.5 9.57C18.66 9.52 18.83 9.5 19 9.5C20.1 9.5 21 10.4 21 11.5Z" fill="#41FFB4"/>
<path d="M17 5.5V8.64C16.09 9.27 15.5 10.32 15.5 11.5C15.5 11.78 15.28 12 15 12H9C8.72 12 8.5 11.78 8.5 11.5C8.5 10.32 7.91 9.27 7 8.64V5.5C7 4.4 7.9 3.5 9 3.5H15C16.1 3.5 17 4.4 17 5.5Z" fill="#41FFB4"/>
</g>
<defs>
<clipPath id="clip0_1_6194">
<rect width="18" height="19.5" fill="white" transform="translate(3 2)"/>
</clipPath>
</defs>
</svg>

<svg width="24" height="24" fill="none" xmlns="http://www.w3.org/2000/svg"><g clip-path="url(#a)" fill="#41FFB4"><path d="M15 2H9C7.07 2 5.5 3.57 5.5 5.5v2.54c.55.08 1.07.28 1.5.6V5.5c0-1.1.9-2 2-2h6c1.1 0 2 .9 2 2v3.14c.43-.32.95-.52 1.5-.6V5.5C18.5 3.57 16.93 2 15 2zM9.13 19v.5c0 .28-.22.5-.5.5h-1c-.27 0-.5-.22-.5-.5V19h-1.5v.5c0 1.1.9 2 2 2h1a2 2 0 0 0 2-2V19h-1.5z"/><path d="M9.13 19v.5c0 .28-.22.5-.5.5h-1c-.27 0-.5-.22-.5-.5V19h2zM17.13 19v.5c0 .28-.22.5-.5.5h-1c-.27 0-.5-.22-.5-.5V19h-1.5v.5c0 1.1.9 2 2 2h1a2 2 0 0 0 2-2V19h-1.5z"/><path d="M17.13 19v.5c0 .28-.22.5-.5.5h-1c-.27 0-.5-.22-.5-.5V19h2zM21 11.5v4c0 1.1-.9 2-2 2H5c-1.1 0-2-.9-2-2v-4c0-1.1.9-2 2-2 .17 0 .34.02.5.07.86.22 1.5 1 1.5 1.93 0 1.1.9 2 2 2h6c1.1 0 2-.9 2-2 0-.93.64-1.71 1.5-1.93.16-.05.33-.07.5-.07 1.1 0 2 .9 2 2z"/><path d="M17 5.5v3.14c-.91.63-1.5 1.68-1.5 2.86 0 .28-.22.5-.5.5H9c-.28 0-.5-.22-.5-.5 0-1.18-.59-2.23-1.5-2.86V5.5c0-1.1.9-2 2-2h6c1.1 0 2 .9 2 2z"/></g><defs><clipPath id="a"><path fill="#fff" transform="translate(3 2)" d="M0 0h18v19.5H0z"/></clipPath></defs></svg>
